X:8336
T:Gavotte
T:HWV 491
C:Georg Friedrich H\"andel, arr. Frank Nordberg
O:Germany
R:Gavotte
Z:Transcribed by Frank Nordberg - http://www.musicaviva.com
F:http://abc.musicaviva.com/tunes/handel-georg-friedrich/hwv491/hwv491-45m.abc
V:1 Program 1 110 %Fiddle
V:2 Program 1 40 %Violin
V:3 Program 1 41 alto %Viola
V:4 Program 1 42 bass %Cello
M:4/4
K:G
V:1
GA|B2AG d2ef|g6gf|feed dccB|A6GA|
V:2
B,2|D2DG B2A2|G6B2|G4E2G2|F6B,2|
V:3
G,2|G,2G,B, D2A,2|B,6D2|C2G,2A,2D2|D6G,2|
V:4
z2|G,2G,,2 G,2F,2|E,2E,,2E,2B,,2|C,2B,,2A,,2G,,2|D,2A,,2D,,2z2|
%
V:1
B2AGd2ef|g6ag|f2edf2ed|d6:|
V:2
D2DGB2A2|B6A2|A2G2A2G2|F6:|
V:3
G,2A,B,D2A,2|B,6E2|D2B,2^C4|D6:|
V:4
G,2G,,2G,2F,2|E,2E,,2E,2^C,2|D,2G,2A,2A,,2|D,2A,,2D,,2:|
%
V:1
|:fg|a2gf gfga|b6b^d|e^defg2fe|e6gf|
V:2
|:A2|A4BABc|d6B2|G2A2G2A2|G6B2|
V:3
|:D2|D4B,4|D6^DF|G2E2D2^D2|B,6=D2|
V:4
|:D,2|F,2D,2E,2F,2|G,2G,,2G,2B,2|C2A,2B,2B,,2|E,2E,,2E,2B,,2|
%
V:1
feed dccB|c6ed|dccB BAAG|F6GD|
V:2
G4E2G2|E6G2|E2G2GFE2|D6D2|
V:3
C2G,2A,2D2|C6B,2|A,2D2D2A,2|A,6G,2|
V:4
C,2B,,2A,,2G,,2|A,,2E,2A,2G,2|A,2G,2D,2^C,2|D,2D,,2D,2B,,2|
%
V:1
E2AEF2BF|G2cGA2dA|B2AGB2AG|G6:|
V:2
C2E2D2FD|C2E2D2D2|D2E2D2C2|B,6:|
V:3
G,2A,2A,2A,2|G,2C2D2A,D|D2C2G,2F,2|G,6:|
V:4
C,2C,,2D,2D,,2|E,2E,,2F,2F,,2|G,2C,2D,2D,,2|G,2D,2G,,2:|
W:
W:
W:  From Musica Viva - http://www.musicaviva.com
W:  the Internet center for free sheet music downloads.
